!!!!SEGMENT: pl-wtm--iii-42-033--002_kamienski-antoni--marie-valses-valse-no-2.krn
!!!cenid: 18xx:4355
!!!COM: Kamieński, Antoni
!!!COM-rismID: pe50045389
!!!CDT:
!!!CNT: Polish
!!!GTL: Marie-valses
!!!OTL: [Valse] No. 2.
!!!OMV: 002
!!!PDT:
!!!AGN:
!!!SMS-siglum: PL-Wtm
!!!SMS-shelfmark: III.42.033
!!!SMS-shelfwork: 001-002 G
!!!SMS-variant:
!!!SMS-altvar:
!!!NIFC-rismSourceID: 1001136606
!!!NIFC-rismChildID: 1001136608
!!!NIFC-islandoraID: pl-wtm:23979
!!!URL-pdf-islandora: https://repozytorium.nifc.pl/islandora/object/pl-wtm:23979/datastream/PDF/view
!!!URL-scan: https://polish.musicsources.pl/pl/lokalizacje/galeria/druki-muzyczne/17856/3 @EN{Scan on Polish Music Sources Website} @PL{Skany w portalu Dziedzictwo Muzyki Polskiej w otwartym dostępie}
!!!ONB-nifc: UWAGA: skan 3.
!!!AIN: 2 piano
!!!key: A
!!!OMD: N.° 2
**kern	**kern	**dynam
*part2	*part1	*part1
*staff2	*staff1	*
*>[A,A1,A,A2,B,B]	*>[A,A1,A,A2,B,B]	*>[A,A1,A,A2,B,B]
*>A	*>A	*>A
*I"PIANO	*I"PIANO	*
*Ipiano	*Ipiano	*
*ICklav	*ICklav	*
*clefF4	*clefG2	*
*k[f#c#g#dn]	*k[f#c#g#dn]	*
*A:	*A:	*
*M3/4	*M3/4	*
=1	=1	=1
4AA/	(8e\L	.
.	8a\	.
4e 4c# 4A\	8cc#\	.
.	8ee\	.
4e 4c# 4A\	8aa\	.
.	8eee\J)	.
=2	=2	=2
!	!LO:TX:b:i:t=cantabile	!
.	(8qccc#/	.
4C#/	2eee\)	>
4e 4c# 4A\	.	.
4e 4c# 4A\	4ccc#\	]
=3	=3	=3
4EE/	4eee\	.
.	(8qgg#/	.
4d 4B 4E\	4eee\)	.
.	(8qgg#/	.
4d 4B 4E\	4ddd\)	.
=4	=4	=4
4GG#/	2bb 2dd^^\	.
4d 4G# 4E\	.	.
4d 4G# 4E\	4r	.
=5	=5	=5
4EE/	(8e\L	.
.	8g#\	.
4d 4B 4G# 4E\	8b\	.
.	8ee\	.
4d 4B 4G# 4E\	8gg#\	.
.	8bb\J)	.
=6	=6	=6
.	8qgg#/	.
4EE/	2eee\	>
4d 4G# 4E\	.	.
4d 4G# 4E\	4bb\	]
!!LO:LB:g=original
=7	=7	=7
.	(8qff#/	.
4AA/	4ddd\)	.
.	(8qff#/	.
4c# 4A 4E\	4ddd\)	.
4c# 4A 4E\	4ccc# 4ee\	.
=8	=8	=8
4C#/	2aa 2cc#^^\	.
4c# 4A 4E\	.	.
4c# 4A 4E\	4r	.
=9	=9	=9
4AA/	(8e\L	.
.	8a\	.
4e 4c# 4A\	8cc#\	.
.	8ee\	.
4e 4c# 4A\	8aa\	.
!	!LO:TX:b:i:t=exspres&colon;	!
.	8ccc#\J)	.
=10	=10	=10
.	8qff#/	.
4D\	2ccc#\	>
4d 4B 4F#\	.	.
4d 4B 4F#\	4ff#\	]
=11	=11	=11
.	8qff#/	.
4BB/	4ccc#\	.
.	8qff#/	.
4B 4F# 4D\	4ccc#\	.
4B 4F# 4D\	4bb 4dd\	.
=12	=12	=12
4D\	2ff# 2dd 2b^^\	.
4B 4F#\	.	.
4B 4F#\	4r	.
!!LO:PB:g=original
=13	=13	=13
4EE/	(8e\L	.
.	8g#\	.
4d 4G# 4E\	8b\	.
.	8ee\	.
4d 4G# 4E\	8gg#\	.
.	8bb\J)	.
=14	=14	=14
4GG#/	2eee\	>
4d 4B 4G# 4E\	.	.
4d 4B 4G# 4E\	4gg#\	]
=15	=15	=15
!	!LO:TUP:a:problem:klamra łukowa	!
4AA/	12aa\L	.
.	12bb\	.
.	12aa\J	.
4c# 4A 4E\	(8ee\L	.
.	8aa\J)	.
4c# 4A 4E\	(8cc#\L	.
.	8ee\J)	.
=16	=16	=16
!!LO:TX:a:t=1a
*>A1	*>A1	*>A1
4.A 4.E 4.C# 4.AA\	4.a/	.
8r	8r	.
4r	8g#/L	.
.	8f#/J	.
=17:|!	=17:|!	=17:|!
!!LO:TX:a:t=2a
*>A2	*>A2	*>A2
2A 2E 2C# 2AA/	2a/	.
4r	4r	.
=18!|:	=18!|:	=18!|:
*>B	*>B	*>B
!	!	!LO:DY:t=p.
4AA/	4r	p
4c# 4A 4E\	(8eee\L	.
.	8ee\)	.
4c# 4A 4E\	(8eee\	.
.	8ee\J)	.
!!LO:LB:g=original
=19	=19	=19
4EE/	4r	.
4d 4B 4G# 4E\	(8eee\L	.
.	8ee\)	.
4d 4B 4G# 4E\	(8eee\	.
.	8ee\J)	.
=20	=20	=20
4AA/	8fff# 8ff#\	.
.	8r	.
4c# 4A 4E\	8ddd 8dd\	.
.	8r	.
4c# 4A 4E\	8fff# 8ff#\	.
.	8r	.
=21	=21	=21
4C#/	2eee 2ee^^\	.
4e 4c# 4A\	.	.
4e 4c# 4A\	4r	.
=22	=22	=22
4EE/	8ccc# 8cc#\	.
.	8r	.
4d 4G# 4E\	8aa#X 8a#X\	.
.	8r	.
4d 4G# 4E\	8ccc# 8cc#\	.
.	8r	.
=23	=23	=23
4GG#/	2bb 2b^^\	.
4d 4G# 4E\	.	.
4d 4G# 4E\	4r	.
=24	=24	=24
4AA/	8bb 8b\	.
.	8r	.
4c# 4A 4E\	8gg# 8g#\	.
.	8r	.
4c# 4A 4E\	8bb 8b\	.
.	8r	.
!!LO:LB:g=original
=25	=25	=25
4C#\	2aa 2a^^\	.
4A 4E\	.	.
4A 4E\	4r	.
=26	=26	=26
!	!	!LO:DY:t=p&colon;
4AA/	4r	p
4c# 4A 4E\	(8eee\L	.
.	8ee\)	.
4c# 4A 4E\	(8eee\	.
.	8ee\J)	.
=27	=27	=27
4EE/	4r	.
4d 4B 4G# 4E\	(8eee\L	.
.	8ee\)	.
4d 4B 4G# 4E\	(8eee\	.
.	8ee\J)	.
=28	=28	=28
4GG#/	4r	.
4d 4G# 4E\	4eee 4ee\	<
4d 4G# 4E\	4eee#X 4ee#X\	[
=29	=29	=29
!	!	!LO:DY:rj
4D\	2ggg# 2gg#\	f >
4B 4F#\	.	.
!	!LO:TX:b:i:t=congiusto	!
4B 4F#\	4fff# 4ff#\	]
=30	=30	=30
4AA/	2fff# 2ff#\	>
4c# 4A 4E\	.	.
4c# 4A 4E\	4eee 4ee\	]
!!LO:LB:g=original
=31	=31	=31
4D\	2eee 2ee\	>
4d 4B 4F#\	.	.
4d 4B 4F#\	4ddd 4dd\	]
=32	=32	=32
4EE/	2ccc# 2cc#\	>
4d 4G# 4E\	.	.
4d 4G# 4E\	4bb 4b\	]
=33	=33	=33
2A 2E 2C# 2AA\	2aa 2a\	.
4r	4r	.
=:|!	=:|!	=:|!
*-	*-	*-
!!!system-decoration: {(*)}
!!!ENC: Berenika Jozajtis
!!!END: 2023-07-10
!!!ENC: Marta Lawrence
!!!END: 2023-07-17
!!!YEC: Copyright 2022 Narodowy Instytut Fryderyka Chopina (https://polishscores.org)
!!!YEM: License CC-BY-4.0 (https://creativecommons.org/licenses/by/4.0)
